svgs/light/handcuffs.svg

<svg xmlns="http://www.w3.org/2000/svg" viewBox="0 0 640 512"><!--! Font Awesome Pro 6.4.2 by @fontawesome - https://fontawesome.com License - https://fontawesome.com/license (Commercial License) Copyright 2023 Fonticons, Inc. --><path d="M248 24a24 24 0 1 1 48 0 24 24 0 1 1 -48 0zM192 48a24 24 0 1 1 0 48 24 24 0 1 1 0-48zm-32 72c13.3 0 24 10.7 24 24c22.1 0 40 17.9 40 40v21.3c56.5 24.7 96 81.1 96 146.7c0 88.4-71.6 160-160 160S0 440.4 0 352c0-65.6 39.5-122 96-146.7V184c0-22.1 17.9-40 40-40c0-13.3 10.7-24 24-24zm32 75.2V184c0-4.4-3.6-8-8-8H136c-4.4 0-8 3.6-8 8v11.2c10.3-2.1 21-3.2 32-3.2s21.7 1.1 32 3.2zM288 352A128 128 0 1 0 32 352a128 128 0 1 0 256 0zm-64 0A64 64 0 1 0 96 352a64 64 0 1 0 128 0zM64 352a96 96 0 1 1 192 0A96 96 0 1 1 64 352zm416 64a64 64 0 1 0 0-128 64 64 0 1 0 0 128zm0-160a96 96 0 1 1 0 192 96 96 0 1 1 0-192zm-64-72c0-22.1 17.9-40 40-40c0-13.3 10.7-24 24-24s24 10.7 24 24c22.1 0 40 17.9 40 40v21.3c56.5 24.7 96 81.1 96 146.7c0 88.4-71.6 160-160 160c-47.4 0-90-20.6-119.3-53.3c-5.9-6.6-5.3-16.7 1.3-22.6s16.7-5.3 22.6 1.3C408 463.5 442.1 480 480 480c70.7 0 128-57.3 128-128s-57.3-128-128-128c-37.9 0-72 16.5-95.4 42.7c-5.9 6.6-16 7.1-22.6 1.3s-7.1-16-1.3-22.6c15.2-17 34-30.7 55.3-40V184zm32 11.2c10.3-2.1 21-3.2 32-3.2s21.7 1.1 32 3.2V184c0-4.4-3.6-8-8-8H456c-4.4 0-8 3.6-8 8v11.2zM368 0a24 24 0 1 1 0 48 24 24 0 1 1 0-48zm80 48a24 24 0 1 1 0 48 24 24 0 1 1 0-48z"/></svg>

<svg xmlns="http://www.w3.org/2000/svg" viewBox="0 0 640 512"><!--! Font Awesome Pro 6.1.1 by @fontawesome - https://fontawesome.com License - https://fontawesome.com/license (Commercial License) Copyright 2022 Fonticons, Inc. --><path d="M296 24C296 37.25 285.3 48 272 48C258.7 48 248 37.25 248 24C248 10.75 258.7 0 272 0C285.3 0 296 10.75 296 24zM168 72C168 58.75 178.7 48 192 48C205.3 48 216 58.75 216 72C216 85.25 205.3 96 192 96C178.7 96 168 85.25 168 72zM256 352C256 405 213 448 160 448C106.1 448 64 405 64 352C64 298.1 106.1 256 160 256C213 256 256 298.1 256 352zM160 288C124.7 288 96 316.7 96 352C96 387.3 124.7 416 160 416C195.3 416 224 387.3 224 352C224 316.7 195.3 288 160 288zM160 120C173.3 120 184 130.7 184 144C206.1 144 224 161.9 224 184V205.3C280.5 230 320 286.4 320 352C320 440.4 248.4 512 160 512C71.63 512 0 440.4 0 352C0 286.4 39.49 230 96 205.3V184C96 161.9 113.9 144 136 144C136 130.7 146.7 120 160 120zM192 195.2V184C192 179.6 188.4 176 184 176H136C131.6 176 128 179.6 128 184V195.2C138.3 193.1 149 192 160 192C170.1 192 181.7 193.1 192 195.2zM160 224C89.31 224 32 281.3 32 352C32 422.7 89.31 480 160 480C230.7 480 288 422.7 288 352C288 281.3 230.7 224 160 224zM384 352C384 298.1 426.1 256 480 256C533 256 576 298.1 576 352C576 405 533 448 480 448C426.1 448 384 405 384 352zM480 416C515.3 416 544 387.3 544 352C544 316.7 515.3 288 480 288C444.7 288 416 316.7 416 352C416 387.3 444.7 416 480 416zM416 184C416 161.9 433.9 144 456 144C456 130.7 466.7 120 480 120C493.3 120 504 130.7 504 144C526.1 144 544 161.9 544 184V205.3C600.5 230 640 286.4 640 352C640 440.4 568.4 512 480 512C432.6 512 390 491.4 360.7 458.7C354.9 452.1 355.4 441.1 361.1 436.1C368.6 430.2 378.7 430.7 384.6 437.3C408 463.5 442.1 480 480 480C550.7 480 608 422.7 608 352C608 281.3 550.7 224 480 224C442.1 224 408 240.5 384.6 266.7C378.7 273.3 368.6 273.8 361.1 267.9C355.4 262 354.9 251.9 360.7 245.3C375.1 228.3 394.8 214.6 416 205.3L416 184zM448 195.2C458.3 193.1 469 192 480 192C490.1 192 501.7 193.1 512 195.2V184C512 179.6 508.4 176 504 176H456C451.6 176 448 179.6 448 184V195.2zM344 24C344 10.75 354.7 0 368 0C381.3 0 392 10.75 392 24C392 37.25 381.3 48 368 48C354.7 48 344 37.25 344 24zM424 72C424 58.75 434.7 48 448 48C461.3 48 472 58.75 472 72C472 85.25 461.3 96 448 96C434.7 96 424 85.25 424 72z"/></svg>
